!! 00000] TT[WS
!!!OTL: Shi xiang
!!!ARE: Asia, China, Shanxi Dingxiang
!! Ethnic Group: Han
!! WII, 129
!!!SCT: J0599
!!!YEM: Copyright 1995, estate of Helmut Schaffrath.
**kern
*ICvox
*Ivox
*M2/4
*k[b-]
*F:
{8cc
8cc
8dd
8ff
=1
4.cc
8ff
=2
8dd
8cc
8cc
16cc
16d
=3
2f}
=4
{8g
8a
4cc
=5
8cc
8d
4f
=6
8g
16cc
16cc
8cc
8d
=7
4g
8d
8cc}
=8
{16g
16a
16g
16f
8e
8d
=9
4r
8d
8cc
=10
16g
16a
16g
16f
8e
8d
=11
2f}
==
!!!AGN: Xiaodiao. Qingge, Aisu
!!!ONB: ESAC (Essen Associative Code) Database: CHINA
!!!AMT: simple duple
!!!AIN: vox
!!!EED: Helmut Schaffrath
!!!EEV: 1.0
*-
